assets/Hiking boot/Flat/hiking_boot_flat.svg

<svg width="32" height="32" viewBox="0 0 32 32" fill="none" xmlns="http://www.w3.org/2000/svg">
<path d="M24.99 19.88C24.99 19.88 20.23 19.24 18.94 15.52H18.93V11.59C18.93 10.16 17.77 9 16.34 9H4.59C3.16 9 2 10.16 2 11.59V15.53V25.93H11.4C12.96 25.93 14.22 26.19 14.22 27.75H27.06C28.13 27.75 29 27.88 29 26.81L30 25.94C30.01 22.97 27.9 20.43 24.99 19.88Z" fill="#FFB02E"/>
<path d="M2 13.84V11.59C2 10.16 3.16 9 4.59 9H10.86V11.91C10.86 12.98 9.99 13.84 8.93 13.84H2Z" fill="#7D4533"/>
<path d="M18.6186 13.0202C18.9998 13.0154 19.3049 12.7026 19.3002 12.3214C19.2954 11.9402 18.9825 11.6351 18.6013 11.6398L16.2013 11.6698C15.8201 11.6746 15.515 11.9875 15.5198 12.3686C15.5245 12.7498 15.8374 13.055 16.2186 13.0502L18.6186 13.0202Z" fill="#7D4533"/>
<path d="M30 25.93V27.54C30 28 30.03 28.16 29.89 28.49C29.68 29.29 28.97 29.89 28.15 29.98C27.22 30.08 26.39 29.54 26.06 28.75H25.02C24.72 29.48 23.99 29.99 23.15 29.99C22.31 29.99 21.59 29.48 21.28 28.75H20.24C19.94 29.48 19.21 29.99 18.37 29.99C17.53 29.99 16.81 29.48 16.5 28.75H15.46C15.16 29.48 14.43 29.99 13.59 29.99C12.75 29.99 12.03 29.48 11.72 28.75H10.68C10.38 29.48 9.65 29.99 8.81 29.99C7.97 29.99 7.25 29.48 6.94 28.75H5.9C5.6 29.48 4.87 29.99 4.03 29.99C2.91 29.99 2 29.08 2 27.96V25.93H30Z" fill="#7D4533"/>
<path d="M19.3001 15.5385C19.3065 15.9196 19.0026 16.2338 18.6215 16.2401L16.2215 16.2801C15.8403 16.2865 15.5262 15.9827 15.5198 15.6015C15.5135 15.2203 15.8173 14.9062 16.1985 14.8998L18.5985 14.8598C18.9796 14.8535 19.2938 15.1573 19.3001 15.5385Z" fill="#7D4533"/>
</svg>

<svg xmlns="http://www.w3.org/2000/svg" width="32" height="32" fill="none"><path fill="#FFB02E" d="M24.99 19.88s-4.76-.64-6.05-4.36h-.01v-3.93A2.59 2.59 0 0 0 16.34 9H4.59A2.59 2.59 0 0 0 2 11.59v14.34h9.4c1.56 0 2.82.26 2.82 1.82h12.84c1.07 0 1.94.13 1.94-.94l1-.87c.01-2.97-2.1-5.51-5.01-6.06Z"/><path fill="#7D4533" d="M2 13.84v-2.25A2.59 2.59 0 0 1 4.59 9h6.27v2.91c0 1.07-.87 1.93-1.93 1.93H2ZM18.619 13.02a.69.69 0 1 0-.018-1.38l-2.4.03a.69.69 0 0 0 .018 1.38l2.4-.03ZM30 25.93v1.61c0 .46.03.62-.11.95-.21.8-.92 1.4-1.74 1.49-.93.1-1.76-.44-2.09-1.23h-1.04a2.03 2.03 0 0 1-3.74 0h-1.04a2.03 2.03 0 0 1-3.74 0h-1.04a2.03 2.03 0 0 1-3.74 0h-1.04a2.03 2.03 0 0 1-3.74 0H5.9a2.031 2.031 0 0 1-3.9-.79v-2.03h28ZM19.3 15.539a.69.69 0 0 1-.678.701l-2.4.04a.69.69 0 1 1-.024-1.38l2.4-.04a.69.69 0 0 1 .702.679Z"/></svg>
